X:1
T: La Tempete
P:Kerr's Collection
R:Reel
Q: 232
K:A
M:4/4
L:1/8
A3E E4|e3A A4|B2 E2 F2 G2|A2 c2 e4|A3E E4|e3A A4|B2 E2 F2 G2|A2 Bc de fg|
A3E E4|e3A A4|B2 E2 F2 G2|A2 c2 e4|A3E E4|e3A A4|B2 E2 F2 G2|A4 a4|
|:e3c dc Bc|d2 B2 G2 E2|F2 A2 G2 B2|A2 c2 E4|e3c dc Bc|d2 B2 G2 E2|F2 A2 G2 B2|A4 A4:|
|:A3c e3c|f3d e3c|d2 B2 c2 A2|BA GF E4|A3c e3c|f3d e3c|d2 B2 c2 A2|cB AG A4:|
